package/converter/svg/duotone/square-l.svg

<svg xmlns="http://www.w3.org/2000/svg" viewBox="0 0 448 512"><!-- Font Awesome Pro 6.0.0-alpha2 by @fontawesome - https://fontawesome.com License - https://fontawesome.com/license (Commercial License) --><defs><style>.fa-secondary{opacity:.4}</style></defs><path d="M384 32H64C28.654 32 0 60.654 0 96V416C0 451.346 28.654 480 64 480H384C419.348 480 448 451.346 448 416V96C448 60.654 419.348 32 384 32ZM296 384H152C138.75 384 128 373.25 128 360V152C128 138.75 138.75 128 152 128S176 138.75 176 152V336H296C309.25 336 320 346.75 320 360S309.25 384 296 384Z" class="fa-secondary"/><path d="M296 336H176V152C176 138.75 165.25 128 152 128S128 138.75 128 152V360C128 373.25 138.75 384 152 384H296C309.25 384 320 373.25 320 360S309.25 336 296 336Z" class="fa-primary"/></svg>

<svg xmlns="http://www.w3.org/2000/svg" viewBox="0 0 448 512"><!--! Font Awesome Pro 6.6.0 by @fontawesome - https://fontawesome.com License - https://fontawesome.com/license (Commercial License) Copyright 2024 Fonticons, Inc. --><defs><style>.fa-secondary{opacity:.4}</style></defs><path class="fa-secondary" d="M0 96L0 416c0 35.3 28.7 64 64 64l320 0c35.3 0 64-28.7 64-64l0-320c0-35.3-28.7-64-64-64L64 32C28.7 32 0 60.7 0 96zm128 56c0-13.3 10.7-24 24-24s24 10.7 24 24l0 184 120 0c13.3 0 24 10.7 24 24s-10.7 24-24 24l-144 0c-13.3 0-24-10.7-24-24l0-208z"/><path class="fa-primary" d="M152 128c13.3 0 24 10.7 24 24l0 184 120 0c13.3 0 24 10.7 24 24s-10.7 24-24 24l-144 0c-13.3 0-24-10.7-24-24l0-208c0-13.3 10.7-24 24-24z"/></svg>
